!!! OTL: Berkowitz555
!!! Chapter: 1
!!! Section: V
!!! Page: 140
!!! Mode: 
!!! Encoder: DJB
**kern
*staff1
*I"Piano
=1-
*clefG2
*k[]
*C:
*M4/4
8c/L
8f/
8f/
8g/J
2r
=2
8a/L
8e/
8e/
8f#/J
2r
=3
8g/L
8d/
8d/
8e-/J
2r
=4
8a-/L
8g/
8f#/
8c#/J
2r
=5
8c/L
8f/
8f/
8f#/J
8r
8b/L
8a/
8e/J
=6
4r
8r
8a/
8g/L
8d/J
4r
=7
2r
8c#/L
8f#/
8f#/
8g/J
=8
!!linebreak:original
2r
8f/L
8g/J
4r
=9
2r
2f#/
==
*-
